**harm	**harte	**timestamp	**phrase	**leadinstrument	**kern
*M4/4	*M4/4	*	*	*	*
*B:	*B:	*	*	*	*B:
1r;	N	0	.	r	1r;
=1	=1	=1	=1	=1	=1
*>A4_intro	*>A4_intro	*>A4_intro	*>A4_intro	*>A4_intro	*>A4_intro
1r	N	0.395	newline	voice	1r
=2	=2	=2	=2	=2	=2
1r	N	2.737	.	voice	1r
=3	=3	=3	=3	=3	=3
1r	N	5.08	.	voice	1r
=4	=4	=4	=4	=4	=4
1r	N	7.422	.	voice	1r
=5	=5	=5	=5	=5	=5
1r	N	9.765	newline	voice	1r
=6	=6	=6	=6	=6	=6
1r	N	11.77	.	voice	1r
=7	=7	=7	=7	=7	=7
*M2/4	*M2/4	*M2/4	*M2/4	*M2/4	*M2/4
2r	N	13.775	.	voice	2r
=8	=8	=8	=8	=8	=8
*M4/4	*M4/4	*M4/4	*M4/4	*M4/4	*M4/4
1I	B:maj	14.778	.	voice	1B 1dd# 1ff#
=9	=9	=9	=9	=9	=9
1I	B:maj	16.783	.	voice	1B 1dd# 1ff#
=10	=10	=10	=10	=10	=10
1I	B:maj	18.788	newline	voice	1B 1dd# 1ff#
=11	=11	=11	=11	=11	=11
*>A_chorus	*>A_chorus	*>A_chorus	*>A_chorus	*>A_chorus	*>A_chorus
1I	B:maj	21.102	newline	voice	1B 1dd# 1ff#
=12	=12	=12	=12	=12	=12
1I	B:maj	23.364	.	voice	1B 1dd# 1ff#
=13	=13	=13	=13	=13	=13
1I	B:maj	25.625	.	voice	1B 1dd# 1ff#
=14	=14	=14	=14	=14	=14
1V	F#:maj	27.886	.	voice	1F# 1a# 1cc#
=15	=15	=15	=15	=15	=15
1V	F#:maj	30.148	newline	voice	1F# 1a# 1cc#
=16	=16	=16	=16	=16	=16
1V	F#:maj	32.394	.	voice	1F# 1a# 1cc#
=17	=17	=17	=17	=17	=17
*M2/4	*M2/4	*M2/4	*M2/4	*M2/4	*M2/4
2V	F#:maj	34.641	.	voice	2F# 2a# 2cc#
=18	=18	=18	=18	=18	=18
*M4/4	*M4/4	*M4/4	*M4/4	*M4/4	*M4/4
1I	B:maj	35.764	.	voice	1B 1dd# 1ff#
=19	=19	=19	=19	=19	=19
*>B_preverse	*>B_preverse	*>B_preverse	*>B_preverse	*>B_preverse	*>B_preverse
1ii7	C#:min7	38.01	newline	voice	1C# 1e 1g# 1b
=20	=20	=20	=20	=20	=20
1V	F#:maj	40.275	.	voice	1F# 1a# 1cc#
=21	=21	=21	=21	=21	=21
1ii7	C#:min7	42.54	.	voice	1C# 1e 1g# 1b
=22	=22	=22	=22	=22	=22
1V	F#:maj	44.805	.	voice	1F# 1a# 1cc#
=23	=23	=23	=23	=23	=23
*>C_verse	*>C_verse	*>C_verse	*>C_verse	*>C_verse	*>C_verse
1ii7	C#:min7	47.07	newline	voice	1C# 1e 1g# 1b
=24	=24	=24	=24	=24	=24
1ii7	C#:min7	49.298	.	voice	1C# 1e 1g# 1b
=25	=25	=25	=25	=25	=25
1I	B:maj	51.525	.	voice	1B 1dd# 1ff#
=26	=26	=26	=26	=26	=26
1I	B:maj	53.753	.	voice	1B 1dd# 1ff#
=27	=27	=27	=27	=27	=27
1ii7	C#:min7	55.981	newline	voice	1C# 1e 1g# 1b
=28	=28	=28	=28	=28	=28
1ii7	C#:min7	58.187	.	voice	1C# 1e 1g# 1b
=29	=29	=29	=29	=29	=29
1I	B:maj	60.393	.	voice	1B 1dd# 1ff#
=30	=30	=30	=30	=30	=30
1I	B:maj	62.599	.	voice	1B 1dd# 1ff#
=31	=31	=31	=31	=31	=31
1vi	G#:min	64.806	newline	voice	1G# 1b 1dd#
=32	=32	=32	=32	=32	=32
1IV	E:maj	67.059	.	voice	1E 1g# 1b
=33	=33	=33	=33	=33	=33
2vi	G#:min	69.313	.	voice	2G# 2b 2dd#
4IV	E:maj	70.439	.	voice	4E 4g# 4b
4V	F#:maj(9)	71.003	.	voice	4F# 4a# 4cc#
=34	=34	=34	=34	=34	=34
1vi	G#:min	71.566	newline	voice	1G# 1b 1dd#
=35	=35	=35	=35	=35	=35
1IV	E:maj	73.82	.	voice	1E 1g# 1b
=36	=36	=36	=36	=36	=36
1ii7	C#:min7	76.074	.	voice	1C# 1e 1g# 1b
=37	=37	=37	=37	=37	=37
1V	F#:maj	78.328	.	voice	1F# 1a# 1cc#
=38	=38	=38	=38	=38	=38
1ii7	C#:min7	80.582	newline	voice	1C# 1e 1g# 1b
=39	=39	=39	=39	=39	=39
1V	F#:maj	82.877	.	voice	1F# 1a# 1cc#
=40	=40	=40	=40	=40	=40
*>A2_chorus	*>A2_chorus	*>A2_chorus	*>A2_chorus	*>A2_chorus	*>A2_chorus
1I	B:maj	85.171	newline	voice	1B 1dd# 1ff#
=41	=41	=41	=41	=41	=41
1I	B:maj	87.452	.	voice	1B 1dd# 1ff#
=42	=42	=42	=42	=42	=42
1I	B:maj	89.732	.	voice	1B 1dd# 1ff#
=43	=43	=43	=43	=43	=43
1V	F#:maj	92.013	.	voice	1F# 1a# 1cc#
=44	=44	=44	=44	=44	=44
1V	F#:maj	94.293	newline	voice	1F# 1a# 1cc#
=45	=45	=45	=45	=45	=45
1V	F#:maj	96.544	.	voice	1F# 1a# 1cc#
=46	=46	=46	=46	=46	=46
*M2/4	*M2/4	*M2/4	*M2/4	*M2/4	*M2/4
2V	F#:maj	98.796	.	voice	2F# 2a# 2cc#
=47	=47	=47	=47	=47	=47
*M4/4	*M4/4	*M4/4	*M4/4	*M4/4	*M4/4
1I	B:maj	99.921	.	voice	1B 1dd# 1ff#
=48	=48	=48	=48	=48	=48
1I	B:maj	102.173	.	voice	1B 1dd# 1ff#
=49	=49	=49	=49	=49	=49
*>A3_chorus	*>A3_chorus	*>A3_chorus	*>A3_chorus	*>A3_chorus	*>A3_chorus
1I	B:maj	104.424	newline	voice	1B 1dd# 1ff#
=50	=50	=50	=50	=50	=50
1I	B:maj	106.674	.	voice	1B 1dd# 1ff#
=51	=51	=51	=51	=51	=51
1I	B:maj	108.925	.	voice	1B 1dd# 1ff#
=52	=52	=52	=52	=52	=52
1V	F#:maj	111.176	.	voice	1F# 1a# 1cc#
=53	=53	=53	=53	=53	=53
1V	F#:maj	113.426	newline	voice	1F# 1a# 1cc#
=54	=54	=54	=54	=54	=54
1V	F#:maj	115.666	.	voice	1F# 1a# 1cc#
=55	=55	=55	=55	=55	=55
*M2/4	*M2/4	*M2/4	*M2/4	*M2/4	*M2/4
2V	F#:maj	117.905	.	voice	2F# 2a# 2cc#
=56	=56	=56	=56	=56	=56
*M4/4	*M4/4	*M4/4	*M4/4	*M4/4	*M4/4
1I	B:maj	119.025	.	voice	1B 1dd# 1ff#
=57	=57	=57	=57	=57	=57
*>B_preverse	*>B_preverse	*>B_preverse	*>B_preverse	*>B_preverse	*>B_preverse
1ii7	C#:min11	121.265	newline	voice	1C# 1e 1g# 1b
=58	=58	=58	=58	=58	=58
1V	F#:maj	123.527	.	voice	1F# 1a# 1cc#
=59	=59	=59	=59	=59	=59
1ii7	C#:min11	125.789	.	voice	1C# 1e 1g# 1b
=60	=60	=60	=60	=60	=60
1V	F#:maj	128.05	.	voice	1F# 1a# 1cc#
=61	=61	=61	=61	=61	=61
*>C_verse	*>C_verse	*>C_verse	*>C_verse	*>C_verse	*>C_verse
1ii7	C#:min7	130.312	newline	voice	1C# 1e 1g# 1b
=62	=62	=62	=62	=62	=62
1ii7	C#:min7	132.539	.	voice	1C# 1e 1g# 1b
=63	=63	=63	=63	=63	=63
1I	B:maj	134.766	.	voice	1B 1dd# 1ff#
=64	=64	=64	=64	=64	=64
1I	B:maj	136.992	.	voice	1B 1dd# 1ff#
=65	=65	=65	=65	=65	=65
1ii7	C#:min7	139.219	newline	voice	1C# 1e 1g# 1b
=66	=66	=66	=66	=66	=66
1ii7	C#:min7	141.403	.	voice	1C# 1e 1g# 1b
=67	=67	=67	=67	=67	=67
1I	B:maj	143.587	.	voice	1B 1dd# 1ff#
=68	=68	=68	=68	=68	=68
1I	B:maj	145.771	.	voice	1B 1dd# 1ff#
=69	=69	=69	=69	=69	=69
1vi	G#:min	147.956	newline	voice	1G# 1b 1dd#
=70	=70	=70	=70	=70	=70
1IV	E:maj	150.212	.	voice	1E 1g# 1b
=71	=71	=71	=71	=71	=71
2vi	G#:min	152.468	.	voice	2G# 2b 2dd#
4IV	E:maj	153.596	.	voice	4E 4g# 4b
4V	F#:maj(9)	154.16	.	voice	4F# 4a# 4cc#
=72	=72	=72	=72	=72	=72
1vi	G#:min	154.724	newline	voice	1G# 1b 1dd#
=73	=73	=73	=73	=73	=73
1IV	E:maj	156.955	.	voice	1E 1g# 1b
=74	=74	=74	=74	=74	=74
1ii7	C#:min7	159.186	.	voice	1C# 1e 1g# 1b
=75	=75	=75	=75	=75	=75
1V	F#:maj	161.417	.	voice	1F# 1a# 1cc#
=76	=76	=76	=76	=76	=76
1ii7	C#:min7	163.648	newline	voice	1C# 1e 1g# 1b
=77	=77	=77	=77	=77	=77
1V	F#:maj	165.921	.	voice	1F# 1a# 1cc#
=78	=78	=78	=78	=78	=78
*>A2_chorus	*>A2_chorus	*>A2_chorus	*>A2_chorus	*>A2_chorus	*>A2_chorus
1I	B:maj	168.193	newline	voice	1B 1dd# 1ff#
=79	=79	=79	=79	=79	=79
1I	B:maj	170.438	.	voice	1B 1dd# 1ff#
=80	=80	=80	=80	=80	=80
1I	B:maj	172.683	.	voice	1B 1dd# 1ff#
=81	=81	=81	=81	=81	=81
1V	F#:maj	174.927	.	voice	1F# 1a# 1cc#
=82	=82	=82	=82	=82	=82
1V	F#:maj	177.172	newline	voice	1F# 1a# 1cc#
=83	=83	=83	=83	=83	=83
1V	F#:maj	179.408	.	voice	1F# 1a# 1cc#
=84	=84	=84	=84	=84	=84
*M2/4	*M2/4	*M2/4	*M2/4	*M2/4	*M2/4
2V	F#:maj	181.644	.	voice	2F# 2a# 2cc#
=85	=85	=85	=85	=85	=85
*M4/4	*M4/4	*M4/4	*M4/4	*M4/4	*M4/4
1I	B:maj	182.762	.	voice	1B 1dd# 1ff#
=86	=86	=86	=86	=86	=86
1I	B:maj	184.997	.	voice	1B 1dd# 1ff#
=87	=87	=87	=87	=87	=87
1I	B:maj	187.233	newline	voice	1B 1dd# 1ff#
=88	=88	=88	=88	=88	=88
1I	B:maj	189.457	.	voice	1B 1dd# 1ff#
=89	=89	=89	=89	=89	=89
1I	B:maj	191.682	.	voice	1B 1dd# 1ff#
=90	=90	=90	=90	=90	=90
1V	F#:maj	193.906	.	voice	1F# 1a# 1cc#
=91	=91	=91	=91	=91	=91
1V	F#:maj	196.13	newline	voice	1F# 1a# 1cc#
=92	=92	=92	=92	=92	=92
1V	F#:maj	198.366	.	voice	1F# 1a# 1cc#
=93	=93	=93	=93	=93	=93
*M2/4	*M2/4	*M2/4	*M2/4	*M2/4	*M2/4
2V	F#:maj	200.602	.	voice	2F# 2a# 2cc#
=94	=94	=94	=94	=94	=94
*M4/4	*M4/4	*M4/4	*M4/4	*M4/4	*M4/4
1I	B:maj	201.719	.	voice	1B 1dd# 1ff#
=95	=95	=95	=95	=95	=95
1I	B:maj	203.955	.	voice	1B 1dd# 1ff#
=96	=96	=96	=96	=96	=96
1I	B:maj	206.191	newline	voice	1B 1dd# 1ff#
=97	=97	=97	=97	=97	=97
1I	B:maj	208.43	.	voice	1B 1dd# 1ff#
=98	=98	=98	=98	=98	=98
1I	B:maj	210.669	.	voice	1B 1dd# 1ff#
=99	=99	=99	=99	=99	=99
1V	F#:maj	212.907	.	voice	1F# 1a# 1cc#
=100	=100	=100	=100	=100	=100
1V	F#:maj	215.146	newline	voice	1F# 1a# 1cc#
=101	=101	=101	=101	=101	=101
1V	F#:maj	217.369	.	voice	1F# 1a# 1cc#
=102	=102	=102	=102	=102	=102
*M2/4	*M2/4	*M2/4	*M2/4	*M2/4	*M2/4
2V	F#:maj	219.593	.	voice	2F# 2a# 2cc#
=103	=103	=103	=103	=103	=103
*M4/4	*M4/4	*M4/4	*M4/4	*M4/4	*M4/4
1I	B:maj	220.704	.	voice	1B 1dd# 1ff#
=104	=104	=104	=104	=104	=104
1I	B:maj	222.928	.	voice	1B 1dd# 1ff#
=105	=105	=105	=105	=105	=105
*>_fadeout	*>_fadeout	*>_fadeout	*>_fadeout	*>_fadeout	*>_fadeout
1I	B:maj	225.151	newline	voice	1B 1dd# 1ff#
=106	=106	=106	=106	=106	=106
1I	B:maj	227.369	.	voice	1B 1dd# 1ff#
=107	=107	=107	=107	=107	=107
1I	B:maj	229.587	.	voice	1B 1dd# 1ff#
=108	=108	=108	=108	=108	=108
1V	F#:maj	231.805	.	voice	1F# 1a# 1cc#
=109	=109	=109	=109	=109	=109
1V	F#:maj	234.023	newline	voice	1F# 1a# 1cc#
=110	=110	=110	=110	=110	=110
1V	F#:maj	234.873	.	voice	1F# 1a# 1cc#
=111	=111	=111	=111	=111	=111
*M2/4	*M2/4	*M2/4	*M2/4	*M2/4	*M2/4
2V	F#:maj	235.723	.	voice	2F# 2a# 2cc#
=112	=112	=112	=112	=112	=112
*M4/4	*M4/4	*M4/4	*M4/4	*M4/4	*M4/4
1I	B:maj	236.149	.	voice	1B 1dd# 1ff#
=113	=113	=113	=113	=113	=113
1I	B:maj	236.999	.	voice	1B 1dd# 1ff#
1r;	N	237.849	.	r	1r;
1r;	N	241.881	.	r	1r;
*-	*-	*-	*-	*-	*-
!!!OTL: Take A Chance On Me
!!!COC: Abba
!!!BillboardChartDate: 1978/05/06
!!!BillboardPeak: 3
!!!BillboardWeeksOnChart: 18
!!!SampleTargetRank: 32
!!!SampleActualRank: 30
!!!SampleID#: 0961
!!!RDF**harmony: **recip + pitch class of root + harmonic quality
!!!RDF**harte: Chris Harte's syntax, used by MIREX
!!!RDF**phrase: newline = linebreak in original McGill transcription
!!!RDF**timestamp: McGill audio timestamp in seconds
!!!RDF**leadinstrument: original McGill primary instrumentation annotation
!!!RDT: 2017/01/12/
!!!ENC: Nathaniel Condit-Schultz
!!!EST: Awating manual error checking and editing.
